app/dist/common/images/deutsche-euroshop.svg

<svg height="18" viewBox="0 0 18 18" width="18" xmlns="http://www.w3.org/2000/svg"><path d="m0 0h18v18h-18z" fill="#f0f3fa"/><path d="m6 9.06v-.06c0-1.16 0-1.73-.25-2.2-.34-.62-.85-.8-1.74-.8h-2.01v1h1.96c.96 0 1.04.04 1.04 2s-.08 2-1.04 2h-1.96v1h2c.9 0 1.41-.18 1.75-.8.25-.47.25-1.02.25-2.14zm1-3.06h4v1h-4zm0 5h4v1h-4zm4-2.5h-4v1h4zm1 3.5v-1h2.19c.82 0 .82-.14.81-.6v-.17c0-.53-.07-.58-.39-.62h-.07l-.08-.01v-1.12c.78.07 1.54.49 1.54 1.79 0 1.32-.62 1.73-1.82 1.73zm4-5v-1h-2.18c-1.2 0-1.82.42-1.82 1.8 0 1.34.76 1.7 1.54 1.76v-1.13h-.08l-.07-.01h-.18c-.17 0-.21 0-.21-.42v-.18c-.01-.52-.02-.82.81-.82zm-14 3v-2h1v2z" fill="#ba1122"/></svg>

<!-- by TradingView --><svg width="18" height="18" viewBox="0 0 18 18" xmlns="http://www.w3.org/2000/svg"><path fill="#F0F3FA" d="M0 0h18v18H0z"/><path d="M6 9.06V9c0-1.16 0-1.73-.25-2.2-.34-.62-.85-.8-1.74-.8H2v1h1.96C4.92 7 5 7.04 5 9s-.08 2-1.04 2H2v1h2c.9 0 1.41-.18 1.75-.8.25-.47.25-1.02.25-2.14ZM7 6h4v1H7V6Zm0 5h4v1H7v-1Zm4-2.5H7v1h4v-1Zm1 3.5v-1h2.19c.82 0 .82-.14.81-.6v-.17c0-.53-.07-.58-.39-.62h-.07l-.08-.01V8.48c.78.07 1.54.49 1.54 1.79 0 1.32-.62 1.73-1.82 1.73H12Zm4-5V6h-2.18C12.62 6 12 6.42 12 7.8c0 1.34.76 1.7 1.54 1.76V8.43h-.08l-.07-.01h-.18c-.17 0-.21 0-.21-.42v-.18c-.01-.52-.02-.82.81-.82H16ZM2 10V8h1v2H2Z" fill="#BA1122"/></svg>
